card-account-mail.svg

<svg fill="currentColor" viewBox="0 0 24 24"><path d="M21 8V7l-3 2-3-2v1l3 2m4-7H2a2 2 0 0 0-2 2v14a2 2 0 0 0 2 2h20a2 2 0 0 0 2-2V5a2 2 0 0 0-2-2M8 6a3 3 0 0 1 3 3 3 3 0 0 1-3 3 3 3 0 0 1-3-3 3 3 0 0 1 3-3m6 12H2v-1c0-2 4-3.1 6-3.1s6 1.1 6 3.1m8-5h-8V6h8"/></svg>

<svg  viewBox="0 0 24 24" fill="currentColor"><path  d="M21,8V7L18,9L15,7V8L18,10M22,3H2A2,2 0 0,0 0,5V19A2,2 0 0,0 2,21H22A2,2 0 0,0 24,19V5A2,2 0 0,0 22,3M8,6A3,3 0 0,1 11,9A3,3 0 0,1 8,12A3,3 0 0,1 5,9A3,3 0 0,1 8,6M14,18H2V17C2,15 6,13.9 8,13.9C10,13.9 14,15 14,17M22,12H14V6H22"/></svg>
